gtk-icons/Papirus-GTK/48x48/apps/scribus.svg

<?xml version="1.0" encoding="UTF-8" standalone="no"?>
<!-- Created with Inkscape (http://www.inkscape.org/) -->

<svg
   xmlns:dc="http://purl.org/dc/elements/1.1/"
   xmlns:cc="http://creativecommons.org/ns#"
   xmlns:rdf="http://www.w3.org/1999/02/22-rdf-syntax-ns#"
   xmlns:svg="http://www.w3.org/2000/svg"
   xmlns="http://www.w3.org/2000/svg"
   xmlns:sodipodi="http://sodipodi.sourceforge.net/DTD/sodipodi-0.dtd"
   xmlns:inkscape="http://www.inkscape.org/namespaces/inkscape"
   id="svg2817"
   height="48"
   width="48"
   version="1.0"
   inkscape:version="0.91 r"
   sodipodi:docname="scribus.svg">
  <sodipodi:namedview
     pagecolor="#ffffff"
     bordercolor="#666666"
     borderopacity="1"
     objecttolerance="10"
     gridtolerance="10"
     guidetolerance="10"
     inkscape:pageopacity="0"
     inkscape:pageshadow="2"
     inkscape:window-width="1535"
     inkscape:window-height="876"
     id="namedview16"
     showgrid="false"
     inkscape:zoom="1"
     inkscape:cx="26.041028"
     inkscape:cy="26.65428"
     inkscape:window-x="65"
     inkscape:window-y="24"
     inkscape:window-maximized="1"
     inkscape:current-layer="svg2817">
    <inkscape:grid
       type="xygrid"
       id="grid4158" />
  </sodipodi:namedview>
  <metadata
     id="metadata57">
    <rdf:RDF>
      <cc:Work
         rdf:about="">
        <dc:format>image/svg+xml</dc:format>
        <dc:type
           rdf:resource="http://purl.org/dc/dcmitype/StillImage" />
        <dc:title></dc:title>
      </cc:Work>
    </rdf:RDF>
  </metadata>
  <defs
     id="defs2819">
    <clipPath
       id="clipPath4186"
       clipPathUnits="userSpaceOnUse">
      <circle
         id="path4188"
         style="color:#000000"
         cx="286"
         cy="26"
         r="10"
         fill="url(#linearGradient4190)" />
    </clipPath>
  </defs>
  <circle
     r="20"
     cy="24"
     cx="24"
     style="color:#000000;fill:#37a0f2"
     id="path4230" />
  <circle
     cx="286"
     cy="26"
     transform="matrix(2,0,0,2,-548,-28)"
     r="10"
     clip-path="url(#clipPath4186)"
     style="color:#000000;opacity:0;stroke-width:0.45455"
     id="path4240" />
  <circle
     cx="286"
     cy="26"
     transform="matrix(2,0,0,2,-548,-28)"
     r="10"
     clip-path="url(#clipPath4186)"
     style="color:#000000;opacity:0;stroke-width:0.90908998"
     id="path4242" />
  <path
     style="opacity:0.2;fill:#ffffff"
     inkscape:connector-curvature="0"
     d="M 24,4 C 12.921,4 4.002,12.92 4.002,24 c 0,0.16772 -0.004,0.33329 0,0.5 C 4.2662,13.654 13.089,5 24,5 c 10.911,0 19.734,8.6536 19.998,19.5 0.004,-0.16671 0,-0.33228 0,-0.5 C 43.998,12.92 35.079,4 24,4 Z"
     id="rect3436" />
  <path
     inkscape:connector-curvature="0"
     d="M 43.979,23.418 A 20,20 0 0 1 24,43 20,20 0 0 1 4.022,23.582 20,20 0 0 0 4,24 20,20 0 0 0 24,44 20,20 0 0 0 44,24 20,20 0 0 0 43.979,23.418 Z"
     style="color:#000000;opacity:0.3"
     id="circle4330" />
  <path
     sodipodi:nodetypes="ccccccccc"
     id="path4160"
     style="color:#000000;white-space:normal;display:inline;visibility:visible;opacity:0.2;isolation:auto;mix-blend-mode:normal;color-interpolation:sRGB;color-interpolation-filters:linearRGB;solid-color:#000000;solid-opacity:1;fill:#000000;fill-opacity:1;fill-rule:evenodd;stroke:none;color-rendering:auto;image-rendering:auto;shape-rendering:auto"
     white-space="normal"
     isolation="auto"
     mix-blend-mode="normal"
     d="m 26,13.000333 c -3.269061,5.529689 -5.861356,10.465044 -7.5357,15.997231 -0.887,2.961 -1.687,6.027769 -2.464,9.002769 1.266,0.107 1.0227,-0.0088 1.9997,2.31e-4 0.719,-1.609 2.1553,-3.14 3.1533,-4.257 2.477172,-2.577533 4.836706,-3.731074 7.8467,-4.743231 0.044,-3.034 -0.1767,-6.042769 1.0533,-8.703769 0.504,-1.106 1.2947,-2.292231 1.9467,-3.296231 0,-3 -3,-6 -6,-4 z"
     inkscape:connector-curvature="0" />
  <path
     inkscape:connector-curvature="0"
     d="m 26,12 c -3.269061,5.529689 -5.861356,10.465044 -7.5357,15.997231 -0.887,2.961 -1.687,6.027769 -2.464,9.002769 1.266,0.107 1.0227,-0.0088 1.9997,2.31e-4 0.719,-1.609 2.1553,-3.14 3.1533,-4.257 C 23.630472,30.165698 25.990006,29.012157 29,28 29.044,24.966 28.8233,21.957231 30.0533,19.296231 30.5573,18.190231 31.348,17.004 32,16 32,13 29,10 26,12 Z"
     mix-blend-mode="normal"
     isolation="auto"
     white-space="normal"
     style="color:#000000;white-space:normal;display:inline;visibility:visible;opacity:1;isolation:auto;mix-blend-mode:normal;color-interpolation:sRGB;color-interpolation-filters:linearRGB;solid-color:#000000;solid-opacity:1;fill:#ffffff;fill-opacity:1;fill-rule:evenodd;stroke:none;color-rendering:auto;image-rendering:auto;shape-rendering:auto"
     id="path29"
     sodipodi:nodetypes="ccccccccc" />
</svg>

<?xml version="1.0" encoding="UTF-8" standalone="no"?>
<!-- Created with Inkscape (http://www.inkscape.org/) -->
<svg id="svg2817" xmlns:rdf="http://www.w3.org/1999/02/22-rdf-syntax-ns#" xmlns="http://www.w3.org/2000/svg" height="48" width="48" version="1.0" xmlns:cc="http://creativecommons.org/ns#" xmlns:dc="http://purl.org/dc/elements/1.1/">
 <metadata id="metadata57">
  <rdf:RDF>
   <cc:Work rdf:about="">
    <dc:format>image/svg+xml</dc:format>
    <dc:type rdf:resource="http://purl.org/dc/dcmitype/StillImage"/>
    <dc:title/>
   </cc:Work>
  </rdf:RDF>
 </metadata>
 <defs id="defs2819">
  <clipPath id="clipPath4186" clipPathUnits="userSpaceOnUse">
   <circle id="path4188" style="color:#000000" cx="286" cy="26" r="10" fill="url(#linearGradient4190)"/>
  </clipPath>
 </defs>
 <circle id="path4230" style="color:#000000" cy="24" cx="24" r="20" fill="#37a0f2"/>
 <circle id="path4240" opacity="0" style="color:#000000" stroke-width=".45455" clip-path="url(#clipPath4186)" transform="matrix(2,0,0,2,-548,-28)" cy="26" cx="286" r="10"/>
 <circle id="path4242" opacity="0" style="color:#000000" stroke-width=".90909" clip-path="url(#clipPath4186)" transform="matrix(2,0,0,2,-548,-28)" cy="26" cx="286" r="10"/>
 <path id="rect3436" opacity=".2" d="m24 4c-11.079 0-19.998 8.92-19.998 20 0 0.16772-0.004 0.33329 0 0.5 0.2642-10.846 9.087-19.5 19.998-19.5s19.734 8.6536 19.998 19.5c0.004-0.16671 0-0.33228 0-0.5 0-11.08-8.919-20-19.998-20z" fill="#fff"/>
 <path id="circle4330" opacity=".3" style="color:#000000" d="m43.979 23.418a20 20 0 0 1 -19.979 19.582 20 20 0 0 1 -19.978 -19.418 20 20 0 0 0 -0.022 0.418 20 20 0 0 0 20 20 20 20 0 0 0 20 -20 20 20 0 0 0 -0.021 -0.582z"/>
 <path id="path4160" opacity=".2" style="color-rendering:auto;color:#000000;isolation:auto;mix-blend-mode:normal;shape-rendering:auto;solid-color:#000000;image-rendering:auto;white-space:normal" d="m26 13c-3.2691 5.5297-5.8614 10.465-7.5357 15.997-0.887 2.961-1.687 6.0278-2.464 9.0028 1.266 0.107 1.0227-0.0088 1.9997 0.000231 0.719-1.609 2.1553-3.14 3.1533-4.257 2.4772-2.5775 4.8367-3.7311 7.8467-4.7432 0.044-3.034-0.1767-6.0428 1.0533-8.7038 0.504-1.106 1.2947-2.2922 1.9467-3.2962 0-3-3-6-6-4z" isolation="auto" fill-rule="evenodd" white-space="normal" mix-blend-mode="normal"/>
 <path id="path29" style="color-rendering:auto;color:#000000;isolation:auto;mix-blend-mode:normal;shape-rendering:auto;solid-color:#000000;image-rendering:auto;white-space:normal" d="m26 12c-3.2691 5.5297-5.8614 10.465-7.5357 15.997-0.887 2.961-1.687 6.0278-2.464 9.0028 1.266 0.107 1.0227-0.0088 1.9997 0.000231 0.719-1.609 2.1553-3.14 3.1533-4.257 2.477-2.577 4.837-3.731 7.847-4.743 0.044-3.034-0.177-6.043 1.053-8.704 0.504-1.106 1.295-2.292 1.947-3.296 0-3-3-6-6-4z" isolation="auto" mix-blend-mode="normal" fill-rule="evenodd" white-space="normal" fill="#fff"/>
</svg>
